images/computer.svg

<svg width="101" height="100" viewBox="0 0 101 100" fill="none" xmlns="http://www.w3.org/2000/svg">
<path d="M23.4942 54.555L23.3492 24.096C23.3162 22.625 24.8402 22.06 26.3122 22.061L75.5942 22C77.0662 22.001 77.3291 23.332 77.3641 24.803L77.6822 54.752C77.7172 56.224 76.5882 56.871 75.1162 56.88L26.2192 57.202C24.7472 57.212 23.5272 56.027 23.4942 54.555Z" stroke="white" stroke-width="2" stroke-miterlimit="10" stroke-linecap="round" stroke-linejoin="round"/>
<path d="M63.2327 71.3376L83.6737 71.2396L78.6366 59.0506C78.1486 57.8696 76.7177 56.9246 75.4397 56.9396L25.6386 57.2936C24.3586 57.3076 22.8837 58.2606 22.3447 59.4206L16.6396 71.5596L36.2426 71.6326" stroke="white" stroke-width="2" stroke-miterlimit="10" stroke-linecap="round" stroke-linejoin="round"/>
<path d="M16.6448 71.638C16.6448 71.638 15.2658 77.063 21.0178 76.883C22.0198 76.852 27.7498 77.114 34.1718 77.075C34.1718 77.075 41.0378 76.949 52.0108 76.898C62.9828 76.847 79.5 76.898 79.5 76.898C79.5 76.898 83.9488 76.81 83.7098 71.413" stroke="white" stroke-width="2" stroke-miterlimit="10" stroke-linecap="round" stroke-linejoin="round"/>
<path d="M36.4326 71.717L38.5946 72.953C39.3826 73.403 40.7566 73.759 41.6636 73.749L58.9346 73.559C59.8416 73.549 61.1056 73.03 61.7586 72.4L62.8096 71.384" stroke="white" stroke-width="2" stroke-miterlimit="10" stroke-linecap="round" stroke-linejoin="round"/>
<path d="M42.6172 67.8728L56.3852 67.7588" stroke="white" stroke-width="2" stroke-miterlimit="10" stroke-linecap="round" stroke-linejoin="round"/>
<path d="M38.8587 67.782L35.3037 67.832" stroke="white" stroke-width="2" stroke-miterlimit="10" stroke-linecap="round" stroke-linejoin="round"/>
<path d="M64.9427 67.5625L61.3877 67.6135" stroke="white" stroke-width="2" stroke-miterlimit="10" stroke-linecap="round" stroke-linejoin="round"/>
<path d="M56.2864 64.1191L52.7314 64.1702" stroke="white" stroke-width="2" stroke-miterlimit="10" stroke-linecap="round" stroke-linejoin="round"/>
<path d="M56.3821 60.4492L52.8271 60.4992" stroke="white" stroke-width="2" stroke-miterlimit="10" stroke-linecap="round" stroke-linejoin="round"/>
<path d="M48.0931 60.3926L44.5381 60.4426" stroke="white" stroke-width="2" stroke-miterlimit="10" stroke-linecap="round" stroke-linejoin="round"/>
<path d="M47.9359 64.132L44.3809 64.182" stroke="white" stroke-width="2" stroke-miterlimit="10" stroke-linecap="round" stroke-linejoin="round"/>
<path d="M39.6468 64.0759L36.0918 64.1259" stroke="white" stroke-width="2" stroke-miterlimit="10" stroke-linecap="round" stroke-linejoin="round"/>
<path d="M39.888 60.2891L36.334 60.3401" stroke="white" stroke-width="2" stroke-miterlimit="10" stroke-linecap="round" stroke-linejoin="round"/>
<path d="M65.2356 63.9463L61.6816 63.9973" stroke="white" stroke-width="2" stroke-miterlimit="10" stroke-linecap="round" stroke-linejoin="round"/>
<path d="M64.6546 60.6143L61.0996 60.6642" stroke="white" stroke-width="2" stroke-miterlimit="10" stroke-linecap="round" stroke-linejoin="round"/>
<path d="M74.4612 67.4902L70.9062 67.5413" stroke="white" stroke-width="2" stroke-miterlimit="10" stroke-linecap="round" stroke-linejoin="round"/>
<path d="M73.5989 63.7383L70.0439 63.7893" stroke="white" stroke-width="2" stroke-miterlimit="10" stroke-linecap="round" stroke-linejoin="round"/>
<path d="M72.3568 60.2217L68.8018 60.2727" stroke="white" stroke-width="2" stroke-miterlimit="10" stroke-linecap="round" stroke-linejoin="round"/>
<path d="M30.0833 67.5342L26.5293 67.5842" stroke="white" stroke-width="2" stroke-miterlimit="10" stroke-linecap="round" stroke-linejoin="round"/>
<path d="M31.2611 63.8076L27.7061 63.8586" stroke="white" stroke-width="2" stroke-miterlimit="10" stroke-linecap="round" stroke-linejoin="round"/>
<path d="M32.1868 60.2686L28.6318 60.3185" stroke="white" stroke-width="2" stroke-miterlimit="10" stroke-linecap="round" stroke-linejoin="round"/>
<path opacity="0.998062" d="M30.2382 27.5551C30.2382 27.5551 39.9607 27.5513 50.1083 27.5513C60.2558 27.5513 69.6776 26.8598 70.8282 27.5551C71.7986 28.1404 71.7331 50.9462 70.8282 51.8947C69.6274 53.1534 31.7966 52.2333 30.2382 51.8947C29.5021 51.7344 30.0352 46.3182 30.0352 40.2333C30.0352 34.1484 30.2382 27.5551 30.2382 27.5551Z" fill="#FCFCFC" stroke="white" stroke-width="2" stroke-miterlimit="10" stroke-linecap="round" stroke-linejoin="round"/>
</svg>

<svg width="101" height="100" fill="none" xmlns="http://www.w3.org/2000/svg"><path d="m23.494 54.555-.145-30.459c-.033-1.471 1.491-2.036 2.963-2.035L75.594 22c1.472.001 1.735 1.332 1.77 2.803l.318 29.949c.035 1.472-1.094 2.119-2.566 2.128l-48.897.322a2.716 2.716 0 0 1-2.725-2.647ZM63.233 71.338l20.44-.098-5.036-12.19c-.488-1.18-1.92-2.125-3.197-2.11l-49.801.354c-1.28.014-2.755.967-3.294 2.127L16.64 71.56l19.603.073" stroke="#fff" stroke-width="2" stroke-miterlimit="10" stroke-linecap="round" stroke-linejoin="round"/><path d="M16.645 71.638s-1.38 5.425 4.373 5.245c1.002-.031 6.732.231 13.154.192 0 0 6.866-.126 17.839-.177 10.972-.051 27.489 0 27.489 0s4.449-.088 4.21-5.485" stroke="#fff" stroke-width="2" stroke-miterlimit="10" stroke-linecap="round" stroke-linejoin="round"/><path d="m36.433 71.717 2.162 1.236c.788.45 2.162.806 3.069.796l17.27-.19c.908-.01 2.172-.529 2.825-1.159l1.05-1.016M42.617 67.873l13.768-.114M38.859 67.782l-3.555.05M64.943 67.563l-3.555.05M56.286 64.12l-3.555.05M56.382 60.45l-3.555.05M48.093 60.393l-3.555.05M47.936 64.132l-3.555.05M39.647 64.076l-3.555.05M39.888 60.29l-3.554.05M65.236 63.946l-3.554.051M64.655 60.614l-3.555.05M74.461 67.49l-3.555.051M73.599 63.738l-3.555.051M72.357 60.222l-3.555.05M30.083 67.534l-3.554.05M31.261 63.808l-3.555.05M32.187 60.269l-3.555.05" stroke="#fff" stroke-width="2" stroke-miterlimit="10" stroke-linecap="round" stroke-linejoin="round"/><path opacity=".998" d="M30.238 27.555s9.723-.004 19.87-.004c10.148 0 19.57-.691 20.72.004.97.585.905 23.391 0 24.34-1.2 1.258-39.031.338-40.59 0-.736-.16-.203-5.577-.203-11.662 0-6.085.203-12.678.203-12.678Z" fill="#FCFCFC" stroke="#fff" stroke-width="2" stroke-miterlimit="10" stroke-linecap="round" stroke-linejoin="round"/></svg>
